X: 32949
T: President Grant's
R: hornpipe
M: 4/4
K: Cdorian
dc|:BFDF Bcde|fgfdB2cd|egbg fdBd|gfdBc2dc|
BFDF Bcde|fgfdB2cd|egBg fdBd|1 c2B2B2dc:|2 c2B2B2ba||
|:g^fga g=fde|fgfdf2ba|gagb fdBd|cdcB GFDC|
B,F=EF DBAB|Fd^cd Bf=ef|gabg fdBd|1 c2B2B2ba:|2 c2B2B2||

